img/babycool/img.svg

<?xml version="1.0" encoding="UTF-8" standalone="no"?>
<svg
   xmlns:osb="http://www.openswatchbook.org/uri/2009/osb"
   xmlns:dc="http://purl.org/dc/elements/1.1/"
   xmlns:cc="http://creativecommons.org/ns#"
   xmlns:rdf="http://www.w3.org/1999/02/22-rdf-syntax-ns#"
   xmlns:svg="http://www.w3.org/2000/svg"
   xmlns="http://www.w3.org/2000/svg"
   version="1.0"
   width="1440.000000pt"
   height="2880.000000pt"
   viewBox="0 0 1440.000000 2880.000000"
   preserveAspectRatio="xMidYMid meet"
   id="svg114">
  <defs
     id="defs118">
    <linearGradient
       id="linearGradient2999"
       osb:paint="solid">
      <stop
         style="stop-color:#ff5bb2;stop-opacity:1;"
         offset="0"
         id="stop2997" />
    </linearGradient>
  </defs>
  <metadata
     id="metadata108">
Created by potrace 1.16, written by Peter Selinger 2001-2019
<rdf:RDF>
  <cc:Work
     rdf:about="">
    <dc:format>image/svg+xml</dc:format>
    <dc:type
       rdf:resource="http://purl.org/dc/dcmitype/StillImage" />
    <dc:title></dc:title>
  </cc:Work>
</rdf:RDF>
</metadata>
  <path
     style="fill:#2a363b;fill-opacity:1;stroke:none;stroke-width:0;stroke-miterlimit:4;stroke-dasharray:none"
     id="path110"
     d="M 420,810 0,0 v 2880 c 2117.9717,42.2104 -180,-360 1440,-1560 V 360 L 1140,330 720,0 H 0 Z" />
  <path
     style="fill:#000000;fill-opacity:1;stroke:#000000;stroke-width:0.75px;stroke-linecap:butt;stroke-linejoin:miter;stroke-opacity:1"
     d="M 540,1860 0,2880 C 1390.7863,2741.1645 1356.4096,2238.9596 1440,1157.5 l -11.25,8.75 C 285.93922,55.226048 725.15029,1678.8753 540,1860 Z"
     id="path977" />
  <path
     style="fill:#99b898;fill-opacity:1;stroke:#000000;stroke-width:0.75px;stroke-linecap:butt;stroke-linejoin:miter;stroke-opacity:1"
     d="m 720,0 h 720 V 600 C 938.71984,535.02566 1002.017,215.64571 720,0 Z"
     id="path1041" />
  <path
     style="mix-blend-mode:normal;fill:#e84a5f;fill-opacity:1;stroke:#000000;stroke-width:0.75;stroke-linecap:butt;stroke-linejoin:miter;stroke-opacity:1;stroke-miterlimit:4;stroke-dasharray:none"
     d="M 0,0 C 397.21111,164.04282 967.5,502.5 778.34213,778.01242 570,1125 1091.1004,1306.8296 1244.4742,1536.9902 c 333.5144,567.145 74.221,1299.8092 -610.98041,1343.1909 -165,-15 -339.99301,2.9799 -442.55061,1.8893 L 0,2880 Z"
     id="path1043" />
  <path
     style="opacity:0.999;fill:#ff847c;fill-opacity:1;stroke:#000000;stroke-width:0.75px;stroke-linecap:butt;stroke-linejoin:miter;stroke-opacity:1"
     d="M 0,2880 C 997.43576,2610.6812 1023.2504,1449.301 0,660 Z"
     id="path1045" />
  <path
     style="fill:#fecea8;fill-opacity:1;stroke:#000000;stroke-width:0.75px;stroke-linecap:butt;stroke-linejoin:miter;stroke-opacity:1"
     d="M 1440,1147.5 V 2880 H 0 v -7.5 C 793.88205,2734.9312 1449.5514,2082.1133 1078.5,1371 c 60,-150 225.8007,64.6367 237.6695,-77.7412 4.447,-53.3473 78.6258,-71.8316 123.8305,-145.7588 z"
     id="path3073" />
  <path
     style="opacity:0.999;fill:#000000;fill-opacity:0;fill-rule:nonzero;stroke-width:2.3733"
     d="m 1555.3369,1933.1128 c -38.1939,-36.7759 -71.4432,-64.916 -158.8206,-134.4157 -150.3029,-119.5503 -200.7766,-162.7936 -252.947,-216.7124 -85.4073,-88.2694 -135.7867,-174.7375 -153.43405,-263.3444 -6.07417,-30.4983 -6.05353,-104.7931 0.0382,-137.4385 7.37668,-39.5313 34.05665,-120.0349 42.61275,-128.5788 9.8761,-9.8619 82.23,-13.707 124.2043,-6.6004 167.5904,28.3741 403.1013,187.321 705.4241,476.0924 l 31.7749,30.3506 -13.0543,14.1002 c -22.3703,24.1625 -44.4105,61.1506 -58.1588,97.6027 -3.2,8.4845 -12.5681,38.9221 -20.8179,67.639 -17.6128,61.3086 -26.8359,84.2118 -44.7605,111.1507 -32.3561,48.6282 -84.5934,83.1836 -172.3949,114.0406 -2.2771,0.8003 -12.9669,-7.8066 -29.6662,-23.886 z"
     id="path3119"
     transform="scale(0.75)" />
</svg>

<?xml version="1.0" encoding="UTF-8"?>
<svg width="1440pt" height="2880pt" version="1.0" viewBox="0 0 1440 2880" xmlns="http://www.w3.org/2000/svg" xmlns:cc="http://creativecommons.org/ns#" xmlns:dc="http://purl.org/dc/elements/1.1/" xmlns:osb="http://www.openswatchbook.org/uri/2009/osb" xmlns:rdf="http://www.w3.org/1999/02/22-rdf-syntax-ns#">
 <metadata>Created by potrace 1.16, written by Peter Selinger 2001-2019
  <rdf:RDF>
   <cc:Work rdf:about="">
    <dc:format>image/svg+xml</dc:format>
    <dc:type rdf:resource="http://purl.org/dc/dcmitype/StillImage"/>
    <dc:title/>
   </cc:Work>
  </rdf:RDF>
 </metadata>
 <g>
  <path d="m420 810-420-810v2880c2118 42.21-180-360 1440-1560v-960l-300-30-420-330h-720z" fill="#2a363b"/>
  <g stroke="#000000">
   <path d="m540 1860-540 1020c1390.8-138.84 1356.4-641.04 1440-1722.5l-11.25 8.75c-1142.8-1111-703.6 512.63-888.75 693.75z" fill="#000000" stroke-width=".75px"/>
   <path d="m720 0h720v600c-501.28-64.974-437.98-384.35-720-600z" fill="#96b895" stroke-width=".75px"/>
   <path d="m0 0c397.21 164.04 967.5 502.5 778.34 778.01-208.34 346.99 312.76 528.82 466.13 758.98 333.51 567.14 74.221 1299.8-610.98 1343.2-165-15-339.99 2.9799-442.55 1.8893l-190.94-2.0704z" fill="#e84a5f" stroke-width=".75" style="mix-blend-mode:normal"/>
   <path d="m0 2880c997.44-269.32 1023.3-1430.7 0-2220z" fill="#ff847c" opacity=".999" stroke-width=".75px"/>
   <path d="m1440 1147.5v1732.5h-1440v-7.5c793.88-137.57 1449.6-790.39 1078.5-1501.5 60-150 225.8 64.637 237.67-77.741 4.447-53.347 78.626-71.832 123.83-145.76z" fill="#fecea8" stroke-width=".75px"/>
  </g>
 </g>
 <path transform="scale(.75)" d="m1555.3 1933.1c-38.194-36.776-71.443-64.916-158.82-134.42-150.3-119.55-200.78-162.79-252.95-216.71-85.407-88.269-135.79-174.74-153.43-263.34-6.0742-30.498-6.0535-104.79 0.0382-137.44 7.3767-39.531 34.057-120.03 42.613-128.58 9.8761-9.8619 82.23-13.707 124.2-6.6004 167.59 28.374 403.1 187.32 705.42 476.09l31.775 30.351-13.054 14.1c-22.37 24.162-44.41 61.151-58.159 97.603-3.2 8.4845-12.568 38.922-20.818 67.639-17.613 61.309-26.836 84.212-44.76 111.15-32.356 48.628-84.593 83.184-172.39 114.04-2.2771 0.8003-12.967-7.8066-29.666-23.886z" fill-opacity="0" opacity=".999" stroke-width="2.3733"/>
</svg>
